X: 1
T: DOUBLE SET-BACK
S: Carey(MSS)
O: Headington
B: Morris Ring
Z: 2005 John Chambers <jc@trillian.mit.edu>
M: 2/2
L: 1/8
K: G
|: dedB G2FG | ABAB A2Bc | dgfe dcBA | B2G2 G2z2 :|
P: B
|: Bc |\
   d2g2 d2Bc | d2g2 d2Bc | d2gf edcB |1 c2A2 A2Bc :|2 e2A2 A2 ||
